X: 20339
T: John Brosnan's
R: polka
M: 2/4
K: Dmajor
|:D>E DB|AF FB|AF DE|FEE2|D>E DB|AF FB|AF EF|D2D2:|
|:d2cd|BA FA|d2cd|B3c|
d2cd|BA F>B|AF EF|D2D2:|
|:d2e2|f3f|ed Bc|d3A|
Bc/B/ AF|Bc/B/ AF|AF EF|D2D2:|

